X: 2004
T: Ascent Of Conival
R: reel
M: 4/4
K: Gminor
|:G,B,DF ABAF-|FDcF BFAF|cFBF ABAF-|FDEF EDCE|G,B,DF ABAF-|
FDcF BFAF|1 c z d2 BAFG-|GBAF G4:|2 cFdF BAFG-|GBAF G3 C||
|:DFBF EFBc-|cBAB AFBF|cFBF ABAF-|FDEF EDCE|DFBF EFBc-|
cBAB AFBF|1 c z d2 BAFG-|GBAF G3 C:|2 cFdF BAFG-|GBAF G4||

